!!!COM: Bach, Johann Sebastian
!!!OPR: Joh. Seb. Bachs vierstimmige Choralgesänge
!!!XEN: Four-part Chorales
!!!OTL: Chorale 67. Gott lebet noch
!!!SCT: BWV 320
!!!SCA: Thematisch-systematisches Verzeichnis der musikalischen Werke Johann Sebastian Bach: Bach-Werke-Verzeichnis (Schmieder)
!!!YOR: Bach Gesellschaft Edition xxxix
!!!ENC: Steven Rasmussen
!!!CDT: 1685/3//-1750/7/28/
!!!OCY: Deutschland
!!!YEC: Copyright (c) 1994, 2000 Center for Computer Assisted Research in the Humanities
!!!YEM: Rights to all derivative editions reserved
!!!YEN: United States of America
**kern	**silbe	**kern	**silbe	**kern	**silbe	**kern	**silbe
*I:[BASSO]	*I:[BASSO]	*I:[TENORE]	*I:[TENORE]	*I:[ALTO]	*I:[ALTO]	*I:[SOPRANO]	*I:[SOPRANO]
*clefF4	*	*clefGv2	*	*clefG2	*	*clefG2	*
*k[b-]	*	*k[b-]	*	*k[b-]	*	*k[b-]	*
*F:	*	*F:	*	*F:	*	*F:	*
*M3/4	*	*M3/4	*	*M3/4	*	*M3/4	*
=1-	=1-	=1-	=1-	=1-	=1-	=1-	=1-
4FF	.	4A	.	4c	.	4f	Gott
4F	.	4c	.	4f	.	4a	le-
4D	.	4d	.	4f	.	4bn	-bet
=2	=2	=2	=2	=2	=2	=2	=2
4C	.	2.e	.	2.g	.	2.cc	noch;
4c	.	.	.	.	.	.	.
4B-	.	.	.	.	.	.	.
=3	=3	=3	=3	=3	=3	=3	=3
4A	.	4c	.	4f	.	4cc	See-
4G	.	4d	.	4g	.	4b-	.
4A	.	4c	.	4f	.	4cc	-le,
=4	=4	=4	=4	=4	=4	=4	=4
4B-	.	4B-	.	2f	.	4dd	was
4A	.	4F	.	.	.	4cc	.
4B-	.	4B-	.	4f	.	4dd	ver-
=5	=5	=5	=5	=5	=5	=5	=5
2G	.	8B-L	.	8gL	.	4ee	-zagst
.	.	8cJ	.	8aJ	.	.	.
.	.	4d	.	2b-	du	4dd	.
4C	.	4c	du	.	.	4ee	du
=6	=6	=6	=6	=6	=6	=6	=6
2F	.	2.c;	.	2.a;	.	2.ff;	doch?
4FF;	.	.	.	.	.	.	.
=7	=7	=7	=7	=7	=7	=7	=7
4D	.	2d	.	2f	.	2a	Gott
4C	.	.	.	.	.	.	.
4BB-	.	4d	.	4f	.	4b-	ist
=8	=8	=8	=8	=8	=8	=8	=8
4AA	.	2c	.	8fL	.	4cc	gut,
.	.	.	.	8dJ	.	.	.
4GG	.	.	.	4e	.	4b-	.
4FF	.	4c	.	4f	.	4a	der
=9	=9	=9	=9	=9	=9	=9	=9
4C	.	2c	.	2e	.	2g	aus
4BB-	.	.	.	.	.	.	.
4AA	.	4c	.	4f#	.	4a	Er-
=10	=10	=10	=10	=10	=10	=10	=10
4GG	.	4d	.	4g	.	4b-	-bar-
4AA	.	4c	.	4f	.	4a	.
4BB-	.	4c	.	4e	.	4g	-men
=11	=11	=11	=11	=11	=11	=11	=11
4AA	.	4c	.	8fL	.	2f	al-
.	.	.	.	8eJ	.	.	.
4BB-	.	8B-L	.	4d	.	.	.
.	.	8AJ	.	.	.	.	.
4GG	.	4B-	.	4e	.	4g	-le
=12	=12	=12	=12	=12	=12	=12	=12
4FF	.	2c	.	2f	.	2a	HÃ¼lf'
4F	.	.	.	.	.	.	.
4E	.	4c	.	4g	.	4g	auf
=13	=13	=13	=13	=13	=13	=13	=13
4F	.	2c	.	2f	.	2a	Er-
4E	.	.	.	.	.	.	.
4D	.	4d	.	4f	.	4bn	-den
=14	=14	=14	=14	=14	=14	=14	=14
2.C;	.	2.e;	.	2.g;	.	2.cc;	tut,
=15	=15	=15	=15	=15	=15	=15	=15
4c	.	2g	.	2cc	.	2ee	der
4B-	.	.	.	.	.	.	.
4A	.	4f	.	4cc	.	4ff	mit
=16	=16	=16	=16	=16	=16	=16	=16
4B-	.	8fL	.	4b-	.	2dd	Kraft
.	.	8e	.	.	.	.	.
4BB-	.	8d	.	4f	.	.	.
.	.	8c#J	.	.	.	.	.
4A	.	4d	.	4b-	.	4ff	und
=17	=17	=17	=17	=17	=17	=17	=17
4G	.	2g	.	2b-	.	2ee	star-
4F	.	.	.	.	.	.	.
4G	.	4f	.	4b-	.	4dd	-ken
=18	=18	=18	=18	=18	=18	=18	=18
4A	.	2e	.	2a	.	2cc#	Ar-
4AA	.	.	.	.	.	.	.
4G	.	4c#	.	4e	.	4a	-men
=19	=19	=19	=19	=19	=19	=19	=19
4F	.	2d	.	4.a	.	2dd	ma-
4E	.	.	.	.	.	.	.
.	.	.	.	8g	.	.	.
4D	.	4c	.	8fL	.	4a	-chet
.	.	.	.	8eJ	.	.	.
=20	=20	=20	=20	=20	=20	=20	=20
4G	.	4B-	.	4.d	.	4b-	Al-
4A	.	8fL	.	.	.	4a	.
.	.	8eJ	.	8c#	.	.	.
4B-	.	8dL	.	4d	.	4g	-les
.	.	8eJ	.	.	.	.	.
=21	=21	=21	=21	=21	=21	=21	=21
4A	.	4f	.	2d	.	2f	wohl
4G	.	4d	.	.	.	.	.
4A	.	4A	.	4c#	.	8eL	und
.	.	.	.	.	.	8fJ	.
=22	=22	=22	=22	=22	=22	=22	=22
2.D;	.	2.F;	.	2.A;	.	2.d;	gut.
=23	=23	=23	=23	=23	=23	=23	=23
4AA	.	2A	.	4c	.	2f#	Gott
4D	.	.	.	4A	.	.	.
4C	.	4A	.	4d	.	4f#	kann
=24	=24	=24	=24	=24	=24	=24	=24
4BB-	.	4B-	.	4d	.	4g	bes-
4AA	.	4c	.	4c	.	4f#	.
4GG	.	4d	.	4B-	.	4g	-ser
=25	=25	=25	=25	=25	=25	=25	=25
4F#	.	4A	.	2d	.	4a	als
4E	.	4G	.	.	.	4b-	.
4D	.	4F#	.	4d	.	4cc	wir
=26	=26	=26	=26	=26	=26	=26	=26
4G	.	4G	.	4d	.	4b-	den-
4D	.	4F#	.	4c	.	8aL	.
.	.	.	.	.	.	8b-J	.
4GG	.	4G	.	4B-	.	4g	-ken
=27	=27	=27	=27	=27	=27	=27	=27
4E	.	2G	.	4g	.	2cc	al-
4C	.	.	.	4e	.	.	.
4F	.	4A	.	4f	.	4cc	-le
=28	=28	=28	=28	=28	=28	=28	=28
4E	.	4c	.	4g	.	4cc	Not
4D	.	4Bn	.	4f	.	4dd	.
4C	.	4c	.	4e	.	4ee	zum
=29	=29	=29	=29	=29	=29	=29	=29
4D	.	2c	.	4d	.	4ff	Be-
4G	.	.	.	8eL	.	4ee	.
.	.	.	.	8fJ	.	.	.
4GG	.	4Bn	.	4g	.	4dd	-sten
=30	=30	=30	=30	=30	=30	=30	=30
2C	.	2c	.	2g	.	2ee	len-
4C;	.	4G;	.	4e;	.	4cc;	-ken.
=31	=31	=31	=31	=31	=31	=31	=31
2AA	.	2c	.	2f	.	4ff	See-
.	.	.	.	.	.	4cc	.
4FF	.	4c	.	4f	.	4a	-le,
=32	=32	=32	=32	=32	=32	=32	=32
4BB-	.	2B-	.	2f	.	2dd	so
4B-	.	.	.	.	.	.	.
4A	.	4c	.	4f	.	4cc	be-
=33	=33	=33	=33	=33	=33	=33	=33
4G	.	4d	.	2g	.	4b-	-den-
4E	.	4c	.	.	.	4cc	.
4F	.	4c	.	4f	.	4a	-ke
=34	=34	=34	=34	=34	=34	=34	=34
4C	.	2.c	.	4f	.	2.g	doch:
4c	.	.	.	2e	.	.	.
4B-	.	.	.	.	.	.	.
=35	=35	=35	=35	=35	=35	=35	=35
4A	.	2c	.	2f	.	4cc	lebt
4F	.	.	.	.	.	4a	.
4A	.	4c	.	4f	.	4f	doch
=36	=36	=36	=36	=36	=36	=36	=36
(4B-	un-	4B-	un-	4f	.	4dd	un-
4G)	.	(4B-	-ser	4g	.	4ee	.
[4F	-ser	4c)	.	4a	.	4ff	-ser
=37	=37	=37	=37	=37	=37	=37	=37
8FL]	.	4c	Herr	2f	.	2a	Herr
8AAJ	.	.	.	.	.	.	.
4BB-	Herr	8dL	Gott	.	.	.	.
.	.	8c	.	.	.	.	.
4C	Gott	8B-	.	4e	.	8gL	Gott
.	.	8cJ	.	.	.	8fJ	.
=38	=38	=38	=38	=38	=38	=38	=38
2.FF;	.	2.A;	noch.	2.c;	.	2.f;	noch.
==|!	==|!	==|!	==|!	==|!	==|!	==|!	==|!
*-	*-	*-	*-	*-	*-	*-	*-
!!!RWG: Key is interpreted using the Humdrum key tool.
!!!URL-pdf: https://s9.imslp.org/files/imglnks/usimg/6/6b/IMSLP24489-PMLP09471-CCARH_Bach_Chorales.pdf#page=46 Musedata edition
!!!URL-pdf: https://s9.imslp.org/files/imglnks/usimg/7/7a/IMSLP04155-Bach_-_BGA_253-438.pdf#page=36 	Bach-Gesellschaft Ausgabe, Band 39 (pp.175-276) Leipzig: Breitkopf und Härtel, 1892. Plate B.W. XXXIX.
!!!END: 1994/06/06
!!!EMD: Converted from MuseData to Humdrum Dec 19, 2000, by Andreas Kornstaedt using muse2kern.
!!!EED: Craig Stuart Sapp
!!!EEV: 2024/03/31
!!!filter-keyboard: satb2gs
!!!title: @{OTL} (@{SCT})
